!!! OTL: Berkowitz15
!!! Chapter: 1
!!! Section: I
!!! Page: 7
!!! Mode: 
!!! Encoder: DJB
**kern
*staff1
*I"Piano
=1-
*clefF4
*k[f#c#]
*D:
*met(c|)
*M2/2
4D\
8D\L
8E\J
4F#\
8F#\L
8G\J
=2
4A\
4B\
2A\
=3
4G\
4A\
2G\
=4
4F#\
4G\
4F#\
4E\
=5
4D\
8D\L
8E\J
4F#\
8F#\L
8G\J
=6
4A\
4B\
4A\
4G\
=7
4F#\
8E\L
8D\J
4E\
4F#\
=8
2E\
2D\
==
*-
